assets/images/chat.svg

<svg width="24" height="24" viewBox="0 0 24 24" fill="none" xmlns="http://www.w3.org/2000/svg">
<g id="Iconset/chat">
<path id="Rectangle" d="M4 7C4 5.89543 4.89543 5 6 5H18C19.1046 5 20 5.89543 20 7V15C20 16.1046 19.1046 17 18 17H15.8284C15.298 17 14.7893 17.2107 14.4142 17.5858L12.7071 19.2929C12.3166 19.6834 11.6834 19.6834 11.2929 19.2929L9.58579 17.5858C9.21071 17.2107 8.70201 17 8.17157 17H6C4.89543 17 4 16.1046 4 15V7Z" stroke="#242527" stroke-width="2"/>
<path id="Vector" d="M9 11L15 11" stroke="#242527" stroke-width="2" stroke-linecap="round"/>
</g>
</svg>

<svg xmlns="http://www.w3.org/2000/svg" width="24" height="24" fill="none"><g stroke="#242527" stroke-width="2"><path d="M4 7a2 2 0 0 1 2-2h12a2 2 0 0 1 2 2v8a2 2 0 0 1-2 2h-2.172a2 2 0 0 0-1.414.586l-1.707 1.707a1 1 0 0 1-1.414 0l-1.707-1.707A2 2 0 0 0 8.172 17H6a2 2 0 0 1-2-2V7Z"/><path stroke-linecap="round" d="M9 11h6"/></g></svg>
